icons/fill-new-medic-health-medicine-needle.svg

<svg xmlns="http://www.w3.org/2000/svg" width="32px" height="32px" viewBox="0 0 32 32" version="1.1">
    <title>fill-new-medic-health-medicine-needle</title>
    <g id="fill-new-medic-health-medicine-needle" stroke-width="1" fill-rule="evenodd">
        <path d="M16.0606602,2.2972042 L22.4238449,8.66031099 L23.8388348,7.24695167 C24.2293591,6.85642738 24.862524,6.85642738 25.2530483,7.24695167 C25.6435726,7.63747596 25.6435726,8.27064094 25.2530483,8.66116524 L23.8378449,10.075311 L30.2027958,16.4393398 C30.5933201,16.8298641 30.5933201,17.4630291 30.2027958,17.8535534 C29.8122715,18.2440777 29.1791065,18.2440777 28.7885822,17.8535534 L27.3738449,16.439311 L14.6464466,29.1672619 C14.2559223,29.5577862 13.6227573,29.5577862 13.232233,29.1672619 L8.98884489,24.924311 L6.16116524,27.7530483 C5.77064094,28.1435726 5.13747596,28.1435726 4.74695167,27.7530483 C4.35642738,27.362524 4.35642738,26.7293591 4.74695167,26.3388348 L7.57484489,23.509311 L3.33273811,19.267767 C2.94221382,18.8772427 2.94221382,18.2440777 3.33273811,17.8535534 L16.0598449,5.12531099 L14.6464466,3.71141777 C14.2559223,3.32089348 14.2559223,2.6877285 14.6464466,2.2972042 C15.0369709,1.90667991 15.6701359,1.90667991 16.0606602,2.2972042 Z M8.98959236,17.8535534 C8.59906807,18.2440777 8.59906807,18.8772427 8.98959236,19.267767 L13.232233,23.5104076 C13.6227573,23.9009319 14.2559223,23.9009319 14.6464466,23.5104076 C15.0369709,23.1198833 15.0369709,22.4867184 14.6464466,22.0961941 L10.4038059,17.8535534 C10.0132816,17.4630291 9.38011665,17.4630291 8.98959236,17.8535534 Z" id="&#24418;&#29366;" />
    </g>
</svg>

<svg xmlns="http://www.w3.org/2000/svg" viewBox="0 0 32 32"><path fill="currentColor" d="m16.06 2.297 6.364 6.363 1.415-1.413a1 1 0 1 1 1.414 1.414l-1.415 1.414 6.365 6.364a1 1 0 0 1-1.414 1.415l-1.415-1.415-12.728 12.728a1 1 0 0 1-1.414 0L8.99 24.924 6.16 27.753a1 1 0 0 1-1.414-1.414l2.828-2.83-4.242-4.241a1 1 0 0 1 0-1.414L16.06 5.125l-1.414-1.414a1 1 0 1 1 1.415-1.414M8.99 17.854a1 1 0 0 0 0 1.414l4.242 4.242a1 1 0 0 0 1.414-1.414l-4.242-4.242a1 1 0 0 0-1.414 0"/></svg>
